X: 1
T: House of Parliament
S: Kalle Alml\"of
S: Magnus Gustafsson 1993-08
R: g\aangl\aat
Z: John Chambers <jc@trillian.mit.edu>
M: C
L: 1/8
K: Dm
|: A^c | "Dm"d2d^c d2e2 | f2gf e2d2 | "A7"^cdef ecec | A4 d3e | "Dm"(f2ff) fefg | (a2a2) abag |
| "A7"e2g2 "Dm"fgfd | "A7"e6 A^c || "Dm"d2d^c d2e2 | f2gf e2d2 | "A7"^cdef ecec | A4 d3e |
| "Dm"(f2ff) fefg | (a2a2) abag | "A7"e2g2 fgfe | "Dm"d6 :: A^c | "Dm"~d2d^c d2"C7"=c2 | "F"A2A2 F3F |
| "A"EFED "G"DG=BG | "A"A2A=B A2A^c | "Dm"d2d^c d2"C7"=c2 | "F"A2A2 F3F | "A"EFED A^cec | "Dm"d2d^c d2 :|
